images/SVG/envelope.svg

<svg width="16" height="12" viewBox="0 0 16 12" fill="none" xmlns="http://www.w3.org/2000/svg">
<path id="envelope" d="M14.5 0H1.50001C0.672854 0 0 0.672853 0 1.50001V10.5C0 11.3271 0.672854 12 1.50001 12H14.5C15.3271 12 16 11.3271 16 10.5V1.50001C16 0.672853 15.3271 0 14.5 0ZM14.5 0.999994C14.5679 0.999994 14.6325 1.01409 14.6916 1.0387L8 6.83838L1.30833 1.0387C1.36742 1.01412 1.43204 0.999994 1.49998 0.999994H14.5ZM14.5 11H1.50001C1.22414 11 0.999996 10.7759 0.999996 10.5V2.09521L7.67236 7.87792C7.76661 7.95944 7.8833 7.99999 8 7.99999C8.1167 7.99999 8.23339 7.95948 8.32764 7.87792L15 2.09521V10.5C15 10.7759 14.7759 11 14.5 11Z" fill="#757575"/>
</svg>

<svg xmlns="http://www.w3.org/2000/svg" width="16" height="12" fill="none"><path fill="#757575" d="M14.5 0h-13C.7 0 0 .7 0 1.5v9c0 .8.7 1.5 1.5 1.5h13c.8 0 1.5-.7 1.5-1.5v-9c0-.8-.7-1.5-1.5-1.5Zm0 1h.2L8 6.8 1.3 1h13.2Zm0 10h-13a.5.5 0 0 1-.5-.5V2.1l6.7 5.8a.5.5 0 0 0 .6 0L15 2v8.4c0 .3-.2.5-.5.5Z"/></svg>
